images/social/figma.svg

<svg height="30" viewBox="0 0 30 30" width="30" xmlns="http://www.w3.org/2000/svg"><g fill="none" fill-rule="evenodd" stroke="#fff" stroke-width="1.5"><path d="m11.9235857 23.5413c1.6138286 0 2.9235857-1.3097571 2.9235857-2.9235429v-2.9235857h-2.9235857c-1.6138286 0-2.9235857 1.3097572-2.9235857 2.9235857 0 1.6137858 1.3097571 2.9235429 2.9235857 2.9235429z"/><path d="m9 14.7707143c0-1.6138286 1.3097571-2.9235857 2.9235857-2.9235857h2.9235857v5.8471285h-2.9235857c-1.6138286 0-2.9235857-1.3097571-2.9235857-2.9235428z"/><path d="m9 8.92358571c0-1.61382857 1.3097571-2.92358571 2.9235857-2.92358571h2.9235857v5.8471286h-2.9235857c-1.6138286 0-2.9235857-1.3097572-2.9235857-2.92354289z"/><path d="m14.8476857 6.00004286h2.9235429c1.6138285 0 2.9235857 1.30975714 2.9235857 2.92358571 0 1.61378573-1.3097572 2.92354283-2.9235857 2.92354283h-2.9235429z"/><path d="m20.6948143 14.7707143c0 1.6137857-1.3097572 2.9235428-2.9235857 2.9235428-1.6137857 0-2.9235429-1.3097571-2.9235429-2.9235428 0-1.6138286 1.3097572-2.9235857 2.9235429-2.9235857 1.6138285 0 2.9235857 1.3097571 2.9235857 2.9235857z"/></g></svg>

<?xml version="1.0" encoding="UTF-8"?>
<svg width="30px" height="30px" viewBox="0 0 30 30" version="1.1" xmlns="http://www.w3.org/2000/svg" xmlns:xlink="http://www.w3.org/1999/xlink">
    <title>figma</title>
    <g id="figma" stroke="none" stroke-width="1" fill="none" fill-rule="evenodd">
        <path d="M11.9235857,23.5413 C13.5374143,23.5413 14.8471714,22.2315429 14.8471714,20.6177571 L14.8471714,17.6941714 L11.9235857,17.6941714 C10.3097571,17.6941714 9,19.0039286 9,20.6177571 C9,22.2315429 10.3097571,23.5413 11.9235857,23.5413 Z" id="路径" stroke="#FFFFFF" stroke-width="1.5"></path>
        <path d="M9,14.7707143 C9,13.1568857 10.3097571,11.8471286 11.9235857,11.8471286 L14.8471714,11.8471286 L14.8471714,17.6942571 L11.9235857,17.6942571 C10.3097571,17.6942571 9,16.3845 9,14.7707143 Z" id="路径" stroke="#FFFFFF" stroke-width="1.5"></path>
        <path d="M9,8.92358571 C9,7.30975714 10.3097571,6 11.9235857,6 L14.8471714,6 L14.8471714,11.8471286 L11.9235857,11.8471286 C10.3097571,11.8471286 9,10.5373714 9,8.92358571 Z" id="路径" stroke="#FFFFFF" stroke-width="1.5"></path>
        <path d="M14.8476857,6.00004286 L17.7712286,6.00004286 C19.3850571,6.00004286 20.6948143,7.3098 20.6948143,8.92362857 C20.6948143,10.5374143 19.3850571,11.8471714 17.7712286,11.8471714 L14.8476857,11.8471714 L14.8476857,6.00004286 Z" id="路径" stroke="#FFFFFF" stroke-width="1.5"></path>
        <path d="M20.6948143,14.7707143 C20.6948143,16.3845 19.3850571,17.6942571 17.7712286,17.6942571 C16.1574429,17.6942571 14.8476857,16.3845 14.8476857,14.7707143 C14.8476857,13.1568857 16.1574429,11.8471286 17.7712286,11.8471286 C19.3850571,11.8471286 20.6948143,13.1568857 20.6948143,14.7707143 Z" id="路径" stroke="#FFFFFF" stroke-width="1.5"></path>
    </g>
</svg>
